X:654
T:Moy Hall
R:Reel
B:The Athole Collection
M:C|
L:1/8
K:C
G|c2ec GcEC|FDAD dDAB|1 c2ec GcEC| G,CB,D ECC:|2 c2ec GcEF|
GcBd ecc||
f|ecgc aceg|fdad bdfa|1 ecgc acec|GcBd eccf:|2 ecgc ecGE|G,CB,D ECC||

